coreui/free/cil-dialpad.svg

<svg xmlns="http://www.w3.org/2000/svg" viewBox="0 0 512 512">
  <path fill="var(--ci-primary-color, currentColor)" d="M121,16a48,48,0,1,0,48,48A48.054,48.054,0,0,0,121,16Zm0,64a16,16,0,1,1,16-16A16.019,16.019,0,0,1,121,80Z" class="ci-primary"/>
  <path fill="var(--ci-primary-color, currentColor)" d="M249,16a48,48,0,1,0,48,48A48.054,48.054,0,0,0,249,16Zm0,64a16,16,0,1,1,16-16A16.019,16.019,0,0,1,249,80Z" class="ci-primary"/>
  <path fill="var(--ci-primary-color, currentColor)" d="M377,112a48,48,0,1,0-48-48A48.054,48.054,0,0,0,377,112Zm0-64a16,16,0,1,1-16,16A16.019,16.019,0,0,1,377,48Z" class="ci-primary"/>
  <path fill="var(--ci-primary-color, currentColor)" d="M121,144a48,48,0,1,0,48,48A48.054,48.054,0,0,0,121,144Zm0,64a16,16,0,1,1,16-16A16.019,16.019,0,0,1,121,208Z" class="ci-primary"/>
  <path fill="var(--ci-primary-color, currentColor)" d="M249,144a48,48,0,1,0,48,48A48.054,48.054,0,0,0,249,144Zm0,64a16,16,0,1,1,16-16A16.019,16.019,0,0,1,249,208Z" class="ci-primary"/>
  <path fill="var(--ci-primary-color, currentColor)" d="M377,144a48,48,0,1,0,48,48A48.054,48.054,0,0,0,377,144Zm0,64a16,16,0,1,1,16-16A16.019,16.019,0,0,1,377,208Z" class="ci-primary"/>
  <path fill="var(--ci-primary-color, currentColor)" d="M121,272a48,48,0,1,0,48,48A48.054,48.054,0,0,0,121,272Zm0,64a16,16,0,1,1,16-16A16.019,16.019,0,0,1,121,336Z" class="ci-primary"/>
  <path fill="var(--ci-primary-color, currentColor)" d="M249,272a48,48,0,1,0,48,48A48.054,48.054,0,0,0,249,272Zm0,64a16,16,0,1,1,16-16A16.019,16.019,0,0,1,249,336Z" class="ci-primary"/>
  <path fill="var(--ci-primary-color, currentColor)" d="M377,272a48,48,0,1,0,48,48A48.054,48.054,0,0,0,377,272Zm0,64a16,16,0,1,1,16-16A16.019,16.019,0,0,1,377,336Z" class="ci-primary"/>
  <path fill="var(--ci-primary-color, currentColor)" d="M249,400a48,48,0,1,0,48,48A48.054,48.054,0,0,0,249,400Zm0,64a16,16,0,1,1,16-16A16.019,16.019,0,0,1,249,464Z" class="ci-primary"/>
</svg>

<svg viewBox="0 0 512 512" xmlns="http://www.w3.org/2000/svg"><g><path d="M121 16v0c-26.51 0-48 21.49-48 48 0 26.5 21.49 48 48 48 26.5 0 48-21.5 48-48v0c-.03-26.5-21.51-47.98-48-48Zm0 64v0c-8.84 0-16-7.17-16-16 0-8.84 7.16-16 16-16 8.83 0 16 7.16 16 16v0c-.02 8.83-7.17 15.98-16 16Z"/><path d="M249 16v0c-26.51 0-48 21.49-48 48 0 26.5 21.49 48 48 48 26.5 0 48-21.5 48-48v0c-.03-26.5-21.51-47.98-48-48Zm0 64v0c-8.84 0-16-7.17-16-16 0-8.84 7.16-16 16-16 8.83 0 16 7.16 16 16v0c-.02 8.83-7.17 15.98-16 16Z"/><path d="M377 112v0c26.5 0 48-21.5 48-48 0-26.51-21.5-48-48-48 -26.51 0-48 21.49-48 48v0c.02 26.49 21.5 47.97 48 48Zm0-64v0c8.83 0 16 7.16 16 16 0 8.83-7.17 16-16 16 -8.84 0-16-7.17-16-16v0c.01-8.84 7.16-15.99 16-16Z"/><path d="M121 144v0c-26.51 0-48 21.49-48 48 0 26.5 21.49 48 48 48 26.5 0 48-21.5 48-48v0c-.03-26.5-21.51-47.98-48-48Zm0 64v0c-8.84 0-16-7.17-16-16 0-8.84 7.16-16 16-16 8.83 0 16 7.16 16 16v0c-.02 8.83-7.17 15.98-16 16Z"/><path d="M249 144v0c-26.51 0-48 21.49-48 48 0 26.5 21.49 48 48 48 26.5 0 48-21.5 48-48v0c-.03-26.5-21.51-47.98-48-48Zm0 64v0c-8.84 0-16-7.17-16-16 0-8.84 7.16-16 16-16 8.83 0 16 7.16 16 16v0c-.02 8.83-7.17 15.98-16 16Z"/><path d="M377 144v0c-26.51 0-48 21.49-48 48 0 26.5 21.49 48 48 48 26.5 0 48-21.5 48-48v0c-.03-26.5-21.51-47.98-48-48Zm0 64v0c-8.84 0-16-7.17-16-16 0-8.84 7.16-16 16-16 8.83 0 16 7.16 16 16v0c-.02 8.83-7.17 15.98-16 16Z"/><path d="M121 272v0c-26.51 0-48 21.49-48 48 0 26.5 21.49 48 48 48 26.5 0 48-21.5 48-48v0c-.03-26.5-21.51-47.98-48-48Zm0 64v0c-8.84 0-16-7.17-16-16 0-8.84 7.16-16 16-16 8.83 0 16 7.16 16 16v0c-.02 8.83-7.17 15.98-16 16Z"/><path d="M249 272v0c-26.51 0-48 21.49-48 48 0 26.5 21.49 48 48 48 26.5 0 48-21.5 48-48v0c-.03-26.5-21.51-47.98-48-48Zm0 64v0c-8.84 0-16-7.17-16-16 0-8.84 7.16-16 16-16 8.83 0 16 7.16 16 16v0c-.02 8.83-7.17 15.98-16 16Z"/><path d="M377 272v0c-26.51 0-48 21.49-48 48 0 26.5 21.49 48 48 48 26.5 0 48-21.5 48-48v0c-.03-26.5-21.51-47.98-48-48Zm0 64v0c-8.84 0-16-7.17-16-16 0-8.84 7.16-16 16-16 8.83 0 16 7.16 16 16v0c-.02 8.83-7.17 15.98-16 16Z"/><path d="M249 400v0c-26.51 0-48 21.49-48 48 0 26.5 21.49 48 48 48 26.5 0 48-21.5 48-48v-.001c-.03-26.5-21.51-47.98-48-48Zm0 64v0c-8.84 0-16-7.17-16-16 0-8.84 7.16-16 16-16 8.83 0 16 7.16 16 16v0c-.02 8.83-7.17 15.98-16 16Z"/></g></svg>
